symbols/web/text_snippet/materialsymbolssharp/text_snippet_wght300fill1_24px.svg

<svg xmlns="http://www.w3.org/2000/svg" height="24" width="24"><path d="M3.5 20.5v-17h11.4l5.6 5.6v11.4Zm3.75-4h9.5V15h-9.5Zm0-3.75h9.5v-1.5h-9.5Zm0-3.75h6.375V7.5H7.25Z"/></svg>

<svg xmlns="http://www.w3.org/2000/svg" height="24" width="24"><path d="M3.5 20.5V3.5H14.9L20.5 9.1V20.5ZM7.25 16.5H16.75V15H7.25ZM7.25 12.75H16.75V11.25H7.25ZM7.25 9H13.625V7.5H7.25Z"/></svg>
